app/assets/img/ic-work.svg

<svg height="250" viewBox="0 0 250 250" width="250" xmlns="http://www.w3.org/2000/svg"><g fill="none" fill-rule="evenodd"><path d="m0 0h250v250h-250zm104.114583 52.0833333h41.666667v20.8333334h-41.666667zm0 0h41.666667v20.8333334h-41.666667z"/><path d="m104.166667 166.666667v-10.416667h-72.8125003l-.1041667 41.666667c0 11.5625 9.2708333 20.833333 20.8333333 20.833333h145.8333337c11.5625 0 20.833333-9.270833 20.833333-20.833333v-41.666667h-72.916667v10.416667zm104.166666-93.7500003h-41.770833v-20.8333334l-20.833333-20.8333333h-41.666667l-20.7291667 20.8333333v20.8333334h-41.6145833c-11.5104167 0-20.8333333 9.3229166-20.8333333 20.8333333v31.25c0 11.510417 9.3229166 20.833333 20.8333333 20.833333h62.5v-20.833333h41.666667v20.833333h62.5c11.510416 0 20.833333-9.322916 20.833333-20.833333v-31.25c-.052083-11.5104167-9.375-20.8333333-20.885417-20.8333333zm-62.552083 0h-41.666667v-20.8333334h41.666667z" fill="#000" fill-rule="nonzero"/></g></svg>

<svg xmlns="http://www.w3.org/2000/svg" width="250" height="250" viewBox="0 0 250 250">
  <g fill="none" fill-rule="evenodd">
    <path d="M0,0 L250,0 L250,250 L0,250 L0,0 Z M104.114583,52.0833333 L145.78125,52.0833333 L145.78125,72.9166667 L104.114583,72.9166667 L104.114583,52.0833333 Z M104.114583,52.0833333 L145.78125,52.0833333 L145.78125,72.9166667 L104.114583,72.9166667 L104.114583,52.0833333 Z"/>
    <path fill="#000000" fill-rule="nonzero" d="M104.166667,166.666667 L104.166667,156.25 L31.3541667,156.25 L31.25,197.916667 C31.25,209.479167 40.5208333,218.75 52.0833333,218.75 L197.916667,218.75 C209.479167,218.75 218.75,209.479167 218.75,197.916667 L218.75,156.25 L145.833333,156.25 L145.833333,166.666667 L104.166667,166.666667 Z M208.333333,72.9166667 L166.5625,72.9166667 L166.5625,52.0833333 L145.729167,31.25 L104.0625,31.25 L83.3333333,52.0833333 L83.3333333,72.9166667 L41.71875,72.9166667 C30.2083333,72.9166667 20.8854167,82.2395833 20.8854167,93.75 L20.8854167,125 C20.8854167,136.510417 30.2083333,145.833333 41.71875,145.833333 L104.21875,145.833333 L104.21875,125 L145.885417,125 L145.885417,145.833333 L208.385417,145.833333 C219.895833,145.833333 229.21875,136.510417 229.21875,125 L229.21875,93.75 C229.166667,82.2395833 219.84375,72.9166667 208.333333,72.9166667 Z M145.78125,72.9166667 L104.114583,72.9166667 L104.114583,52.0833333 L145.78125,52.0833333 L145.78125,72.9166667 Z"/>
  </g>
</svg>
